!!!!SEGMENT: Gom1002b-Missa_Quam_pulchra_es-Gloria.krn
!!!id: Gom1002b
!!!AGN: Mass; Gloria
!!!SCT: Schmidt-Görg (1963)
!!!voices: 6
!!!COM: Nicolas Gombert
!!!OPR: Missa Quam pulchra es 
!!!OTL: Gloria
**kern	**kern	**kern	**kern	**kern	**kern
*part6	*part5	*part4	*part3	*part2	*part1
*staff6	*staff5	*staff4	*staff3	*staff2	*staff1
*I"Bassus II	*I"Bassus I	*I"Tenor	*I"Altus II	*I"Altus I	*I"Superius
*I'B. II	*I'B. I	*I'T	*I'A. II	*I'A. I	*I'S
*clefF4	*clefF4	*clefGv2	*clefGv2	*clefGv2	*clefG2
*k[b-]	*k[b-]	*k[b-]	*k[b-]	*k[b-]	*k[b-]
*d:	*d:	*d:	*d:	*d:	*d:
*M2/1	*M2/1	*M2/1	*M2/1	*M2/1	*M2/1
*met(C|)	*met(C|)	*met(C|)	*met(C|)	*met(C|)	*met(C|)
!!section: Et in terra pax
!!!OMD: Et in terra pax
=1	=1	=1	=1	=1	=1
0r	0r	0r	0r	0r	2.f
.	.	.	.	.	4g
.	.	.	.	.	2a
.	.	.	.	.	2b-y
=2	=2	=2	=2	=2	=2
0r	0r	2.F	0r	0r	2a
.	.	.	.	.	4g
.	.	4G	.	.	4f
.	.	2A	.	.	2e
.	.	2B-y	.	.	[2g
=3	=3	=3	=3	=3	=3
0r	0r	1A	2.c	0r	2g]
.	.	.	.	.	2f
.	.	.	4d	.	.
.	.	2G	2e	.	2g
.	.	2F	2f	.	[2a
=4	=4	=4	=4	=4	=4
0r	0r	1A	2e	2.c	2a]
.	.	.	4d	.	2f
.	.	.	4c	4d	.
.	.	2G	2B-y	2e	2g
.	.	2F	[2c	2f	2a
=5	=5	=5	=5	=5	=5
0r	2.C	1G	2c]	2e	4g
.	.	.	.	.	4e
.	.	.	4B-y	4d	1g
.	4D	.	4A	4c	.
.	2E	1r	2G	2B-y	.
.	2F	.	2A	[2d	2f
=6	=6	=6	=6	=6	=6
0r	1E	0r	2B-y	2d]	2.g
.	.	.	4A	2c	.
.	.	.	4G	.	4a
.	2D	.	2F	2d	4b-y
.	.	.	.	.	4a
.	2C	.	2A	[2e	2cc
=7	=7	=7	=7	=7	=7
0r	1E	1r	1G	4e]	2b-y
.	.	.	.	4d	.
.	.	.	.	1c	4a
.	.	.	.	.	4g
.	1D	2.F	1F	.	2a
.	.	.	.	2B-y	2f
.	.	4G	.	.	.
=8	=8	=8	=8	=8	=8
1r	2C	2A	2r	2c	2e
.	2BB-y	2B-y	2.F	2d	2d
2.FF	1C	2.A	.	4c	1f
.	.	.	4G	4A	.
.	.	.	4A	[2c	.
4GG	.	4G	4B-y	.	.
=9	=9	=9	=9	=9	=9
2AA	1r	2E	2c	2c]	2e
2BB-y	.	1G	2d	2B-y	2d
1AA	1C	.	4c	1c	1a
.	.	.	2A	.	.
.	.	2F	.	.	.
.	.	.	4c	.	.
=10	=10	=10	=10	=10	=10
2GG	2E	2G	2B-y	2r	2r
2FF	2F	2C	2A	1c	1a
1AA	2E	2C	1c	.	.
.	4D	2C	.	2A	2f
.	4C	.	.	.	.
=11	=11	=11	=11	=11	=11
2GG	2BB-y	4E	2r	2B-y	2g
.	.	4D	.	.	.
2FF	2.C	2F	2.c	2A	2a
1C	.	1E	.	1c	[1g
.	4D	.	4B-y	.	.
.	4E	.	2G	.	.
.	4F	.	.	.	.
=12	=12	=12	=12	=12	=12
2BB-y	2G	2D	2B-y	0r	2g]
2AA	2F	2C	2c	.	2a
1GG	2D	1BB-y	2d	.	2b-y
.	2E	.	4c	.	2g
.	.	.	4B-y	.	.
=13	=13	=13	=13	=13	=13
1FF	1F	1C	4A	1c	2a
.	.	.	4F	.	.
.	.	.	2.f	.	2a
2r	1G	1r	.	2B-y	2b-y
.	.	.	4d	.	.
2C	.	.	2e	[2c	2g
=14	=14	=14	=14	=14	=14
2AA	1F	2r	1f	2c]	2a
1BB-y	.	2F	.	1d	1f
.	2r	2D	2r	.	.
2C	2C	2E	2c	[2c	2e
=15	=15	=15	=15	=15	=15
1D	2F	2F	2A	2c]	4d
.	.	.	.	.	4c
.	2D	2F	2B-y	2B-y	2f
2.C	1E	1G	1c	2G	2.e
.	.	.	.	[2c	.
4BB-y	.	.	.	.	4f
=16	=16	=16	=16	=16	=16
1GG	1D	1G	1d	4c]	1.g
.	.	.	.	4A	.
.	.	.	.	2B-y	.
1r	1r	2E	2e	1c	.
.	.	[2F	[2c	.	[2a
=17	=17	=17	=17	=17	=17
0r	0r	2F]	4c]	2d	2a]
.	.	.	4A	.	.
.	.	2G	2B-y	2.e	2g
.	.	1A	1c	.	2e
.	.	.	.	4d	.
.	.	.	.	[2c	2f
=18	=18	=18	=18	=18	=18
0r	2r	1G	2.d	4c]	1.g
.	.	.	.	4A	.
.	2G	.	.	2B-y	.
.	.	.	8c	.	.
.	.	.	8d	.	.
.	2E	1r	4e	1c	.
.	.	.	4d	.	.
.	[2F	.	4c	.	[2a
.	.	.	4B-y	.	.
=19	=19	=19	=19	=19	=19
2r	2F]	1r	2A	2d	2a]
1C	2G	.	2c	1e	2.g
.	1A	2r	1c	.	.
.	.	.	.	.	4e
2AA	.	2F	.	4d	2f
.	.	.	.	4c	.
=20	=20	=20	=20	=20	=20
2BB-y	2G	2D	0r	2d	2g
2C	1A	2E	.	1c	4f
.	.	.	.	.	4e
1D	.	1F	.	.	1d
.	4G	.	.	2B-y	.
.	4F	.	.	.	.
=21	=21	=21	=21	=21	=21
0C	2.E	1G	2r	1c	0e
.	.	.	2c	.	.
.	4D	.	.	.	.
.	1C	1E	2A	2r	.
.	.	.	2G	2c	.
=22	=22	=22	=22	=22	=22
1C	1E	2C	1c	2A	1e
.	.	2c	.	2G	.
2C	2E	2A	2r	1c	2e
2C	2E	2G	2c	.	2e
=23	=23	=23	=23	=23	=23
0C	0E	1c	2A	2r	0e
.	.	.	2G	2c	.
.	.	1r	2.c	2A	.
.	.	.	.	2G	.
.	.	.	4d	.	.
=24	=24	=24	=24	=24	=24
1AA	1.C	1.E	4e	4c	2r
.	.	.	4d	4B-y	.
.	.	.	4c	4A	2cc
.	.	.	4B-y	4G	.
2AA	.	.	1c	1A	2cc
2FF	2F	2A	.	.	2a
=25	=25	=25	=25	=25	=25
2GG	2D	2G	2B-y	2r	2b-y
2AA	1C	2E	2A	2c	2cc
1FF	.	2F	1c	2c	2a
.	2F	2A	.	2A	2cc
=26	=26	=26	=26	=26	=26
2GG	2D	2G	2r	2B-y	2b-y
1AA	1C	1E	1A	2c	2a
.	.	.	.	1A	2cc
2FF	2F	2A	2c	.	2a
=27	=27	=27	=27	=27	=27
2GG	2D	2G	2B-y	2r	2b-y
2AA	1C	2E	2A	1c	2cc
1FF	.	2F	1c	.	2a
.	2F	2A	.	2A	2cc
=28	=28	=28	=28	=28	=28
2GG	2D	2G	2r	2B-y	2b-y
1AA	1C	1E	2A	2c	2a
.	.	.	2A	1A	2cc
2FF	2F	2A	2c	.	2a
=29	=29	=29	=29	=29	=29
2GG	2D	2G	2B-y	2r	2b-y
2AA	1C	2E	2A	2c	2cc
1FF	.	2F	1c	2c	2a
.	2F	2A	.	2A	2cc
=30	=30	=30	=30	=30	=30
2GG	2D	4G	1G	2B-y	4b-y
.	.	4F	.	.	4a
2C	1E	4E	.	2c	4g
.	.	4D	.	.	4f
2C	.	2C	1c	2G	4e
.	.	.	.	.	4c
2AA	2C	2c	.	2e	2a
=31	=31	=31	=31	=31	=31
2BB-y	1D	4B-y	1r	2d	2g
.	.	4A	.	.	.
2D	.	4G	.	2B-y	1f
.	.	4F	.	.	.
1C	1E	1G	1G	2.c	.
.	.	.	.	.	2e
.	.	.	.	4B-y	.
=32	=32	=32	=32	=32	=32
0FF	0C	1F	1.c	1A	2f
.	.	.	.	.	2c
.	.	1A	.	1F	1f
.	.	.	2A	.	.
=33	=33	=33	=33	=33	=33
0r	2r	1G	2B-y	2r	2d
.	2C	.	2c	2G	2e
.	[1F	1r	2d	[1A	2.f
.	.	.	2c	.	.
.	.	.	.	.	4g
=34	=34	=34	=34	=34	=34
0r	2F]	0r	4F	2A]	1a
.	.	.	4G	.	.
.	2D	.	4A	2F	.
.	.	.	4B-y	.	.
.	2E	.	2c	2G	2g
.	2F	.	[2d	2A	[2f
=35	=35	=35	=35	=35	=35
0r	1G	2r	2d]	1B-y	2f]
.	.	2G	4c	.	2e
.	.	.	4B-y	.	.
.	2.F	[1c	4c	4A	4f
.	.	.	4B-y	4B-y	4g
.	.	.	4A	4c	4a
.	4E	.	4G	4d	4b-y
=36	=36	=36	=36	=36	=36
0r	2C	2c]	1A	4e	2cc
.	.	.	.	4c	.
.	2F	2A	.	1d	2f
.	2.E	2B-y	[1G	.	2.g
.	.	2c	.	[2c	.
.	4C	.	.	.	4a
=37	=37	=37	=37	=37	=37
1GG	2.G	1d	2G]	2c]	1b-y
.	.	.	2.g	2B-y	.
.	4F	.	.	.	.
[1C	4E	2.c	.	2c	1g
.	4D	.	4f	.	.
.	2C	.	4e	[2e	.
.	.	4B-y	4d	.	.
=38	=38	=38	=38	=38	=38
2C]	2E	2G	2c	2e]	1cc
2AA	2F	2A	1f	4d	.
.	.	.	.	4c	.
2BB-y	2D	1G	.	2d	2b-y
2C	2E	.	2e	2c	4a
.	.	.	.	.	4g
=39	=39	=39	=39	=39	=39
1D	1F	2r	1d	4c	1f
.	.	.	.	4A	.
.	.	1F	.	2B-y	.
1C	2.G	.	2G	1c	1r
.	.	2E	2c	.	.
.	4F	.	.	.	.
=40	=40	=40	=40	=40	=40
2BB-y	2D	4F	2d	1F	2r
.	.	4G	.	.	.
2AA	1F	4A	2c	.	2a
.	.	4F	.	.	.
1GG	.	1G	1B-y	1r	2b-y
.	2E	.	.	.	2g
=41	=41	=41	=41	=41	=41
1FF	1F	2.C	1A	1.c	1a
.	.	4D	.	.	.
1r	1G	4E	2r	.	4g
.	.	4F	.	.	4a
.	.	[2G	2d	2B-y	2b-y
=42	=42	=42	=42	=42	=42
2r	2C	4G]	2.e	1c	1g
.	.	4F	.	.	.
1C	2E	2G	.	.	.
.	.	.	8d	.	.
.	.	.	8e	.	.
.	1D	2A	2f	1d	1f
2BB-y	.	2B-y	2d	.	.
=43	=43	=43	=43	=43	=43
1C	1C	2r	1e	2.G	1r
.	.	1G	.	.	.
.	.	.	.	4A	.
1D	2r	.	2.d	2B-y	2r
.	[2F	2F	.	2A	[2d
.	.	.	4c	.	.
=44	=44	=44	=44	=44	=44
1GG	2F]	2.G	4B-y	2B-y	2d]
.	.	.	4G	.	.
.	2E	.	1c	4A	2c
.	.	8F	.	4G	.
.	.	8E	.	.	.
1r	1F	1D	.	2A	1d
.	.	.	2B-y	[2F	.
=45	=45	=45	=45	=45	=45
2r	2.G	1C	1c	2F]	1e
1C	.	.	.	2E	.
.	8F	.	.	.	.
.	8E	.	.	.	.
.	1D	2r	1d	1F	2A
2BB-y	.	[2F	.	.	2d
=46	=46	=46	=46	=46	=46
1C	1C	2F]	1G	2.c	2g
.	.	2E	.	.	2g
.	.	.	.	4B-y	.
1D	1r	1F	2r	1A	2.f
.	.	.	[2d	.	.
.	.	.	.	.	4e
=47	=47	=47	=47	=47	=47
2GG	1r	2.G	2d]	1B-y	1d
2GG	.	.	2B-y	.	.
.	.	4F	.	.	.
2AA	2r	2E	2c	2A	1r
2BB-y	[2G	2D	2d	[2G	.
=48	=48	=48	=48	=48	=48
2.C	2G]	2.E	1G	2G]	1g
.	2E	.	.	1c	.
4BB-y	.	4D	.	.	.
2AA	2F	2C	1r	.	2a
2GG	2G	[2G	.	2B-y	2b-y
=49	=49	=49	=49	=49	=49
1AA	2C	2G]	1c	1A	2cc
.	2C	2F	.	.	2a
1GG	2.D	1G	2B-y	1d	1b-y
.	.	.	2G	.	.
.	4E	.	.	.	.
=50	=50	=50	=50	=50	=50
1FF	1.F	1A	1c	2r	1a
.	.	.	.	2A	.
1BB-y	.	1D	2.B-y	2.d	2f
.	2F	.	.	.	[2b-y
.	.	.	4A	4c	.
=51	=51	=51	=51	=51	=51
0r	2G	2E	2G	2B-y	2b-]
.	2D	2F	2F	2f	1a
.	1E-X	2.G	1B-y	2.e-X	.
.	.	.	.	.	2g
.	.	4F	.	4d	.
=52	=52	=52	=52	=52	=52
1AA	0r	2E	1A	2c	2a
.	.	4D	.	2A	2cc
.	.	4C	.	.	.
2GG	.	2D	2r	2B-y	2b-y
2FF	.	[2F	[2A	2c	4a
.	.	.	.	.	4g
=53	=53	=53	=53	=53	=53
1BB-y	0r	2F]	2A]	2d	2f
.	.	4E	2G	4c	2g
.	.	4D	.	4B-y	.
2AA	.	2C	2F	2c	4a
.	.	.	.	.	2cc
2GG	.	2G	[2B-y	2d	.
.	.	.	.	.	4b-y
=54	=54	=54	=54	=54	=54
1C	2r	1E	2B-]	1c	1cc
.	2E	.	2A	.	.
2BB-y	2D	1r	2G	1r	1r
2AA	2C	.	[2c	.	.
=55	=55	=55	=55	=55	=55
4FF	1F	1A	4c]	2r	1r
4GG	.	.	4B-y	.	.
4AA	.	.	4c	1c	.
4BB-y	.	.	4d	.	.
2C	2E	2G	2e	.	2r
2D	[2D	2F	2f	2A	[2a
=56	=56	=56	=56	=56	=56
2.BB-y	4D]	1B-y	1d	1.d	2a]
.	4C	.	.	.	.
.	4D	.	.	.	2g
4C	4E	.	.	.	.
2D	2F	2A	1r	.	2f
2E-i	[2E	2G	.	2B-y	[2b-y
=57	=57	=57	=57	=57	=57
2.C	4E]	1c	0r	1.e-X	2b-]
.	4D	.	.	.	.
.	4E	.	.	.	2a
4D	4F	.	.	.	.
2E	2G	2B-y	.	.	2g
2F	[2F	2A	.	2c	[2cc
=58	=58	=58	=58	=58	=58
2.D	4F]	1d	0r	1.f	2cc]
.	4E	.	.	.	.
.	4F	.	.	.	2b-y
4E	4G	.	.	.	.
2F	2A	2c	.	.	2a
2G	[2G	2B-y	.	2d	[2dd
=59	=59	=59	=59	=59	=59
2E	4G]	1c	1r	1.e	4dd]
.	4F	.	.	.	4cc
2C	4E	.	.	.	1cc
.	4D	.	.	.	.
2G	4E	2.G	2r	.	.
.	4C	.	.	.	.
2GG	[2G	.	2B-y	2d	2bni
.	.	4F	.	.	.
=60	=60	=60	=60	=60	=60
2.AA	2G]	4E	1A	1.c	0cc
.	.	4D	.	.	.
.	2F	1C	.	.	.
4BB-y	.	.	.	.	.
1C	1E	.	1G	.	.
.	.	2E	.	2G	.
=61	=61	=61	=61	=61	=61
2BB-y	0D	2F	0d	1B-y	2r
2GG	.	2G	.	.	1g
1D	.	2D	.	1A	.
.	.	2A	.	.	2f
=62	=62	=62	=62	=62	=62
1GG	0r	2.B-y	0r	2G	2e-X
.	.	.	.	2.B-y	2d
.	.	4c	.	.	.
1r	.	2.d	.	.	1f
.	.	.	.	4c	.
.	.	.	.	[2d	.
.	.	4c	.	.	.
=63	=63	=63	=63	=63	=63
0r	1r	1A	2r	2d]	2.e
.	.	.	1c	2c	.
.	.	.	.	.	4f
.	1G	2r	.	2e	4g
.	.	.	.	.	4e
.	.	2G	2B-y	[2d	4d
.	.	.	.	.	4e
=64	=64	=64	=64	=64	=64
2r	2F	2D	2A	2d]	2f
1C	2E	2E	2G	2c	2g
.	1D	2.F	2A	1d	2.f
2BB-y	.	.	2B-y	.	.
.	.	8E	.	.	4g
.	.	8D	.	.	.
=65	=65	=65	=65	=65	=65
2AA	2C	2E	2c	2r	2a
2GG	1D	2G	2.B-y	2d	2b-y
1BB-y	.	2F	.	2d	2f
.	.	.	4A	.	.
.	2BB-y	4E	[2G	2d	2g
.	.	4D	.	.	.
=66	=66	=66	=66	=66	=66
1AA	1C	4E	2G]	1c	1a
.	.	4C	.	.	.
.	.	1c	2F#i	.	.
1GG	1D	.	1G	1r	1d
.	.	2B-y	.	.	.
=67	=67	=67	=67	=67	=67
2FF	2r	2A	2r	1c	0r
2C	2E	2G	2E	.	.
2BB-y	2D	1B-y	2F	2.d	.
4AA	4C	.	2G	.	.
4GG	4BB-y	.	.	4e	.
=68	=68	=68	=68	=68	=68
1FF	2.C	1A	2A	4f	1f
.	.	.	.	4c	.
.	.	.	2.c	2.f	.
.	4D	.	.	.	.
1C	1E	1G	.	.	2g
.	.	.	4B-y	8e	.
.	.	.	.	8d	.
.	.	.	2G	2e	2g
=69	=69	=69	=69	=69	=69
2FF	2.C	2F	1c	1f	1a
2FF	.	2.C	.	.	.
.	4D	.	.	.	.
2C	4E	.	2r	1e	2.g
.	4F	4D	.	.	.
2C	[2G	4E	2c	.	.
.	.	4C	.	.	4a
=70	=70	=70	=70	=70	=70
4GG	4G]	2G	1.d	0r	2b-y
4AA	4F	.	.	.	.
4BB-y	4D	2.F	.	.	2b-y
4C	4E	.	.	.	.
4D	1F	.	.	.	2a
4E	.	4G	.	.	.
2F	.	4A	2c	.	2a
.	.	4F	.	.	.
=71	=71	=71	=71	=71	=71
2C	1r	2c	2e	1c	1g
2E	.	2G	2.c	.	.
1D	1F	2A	.	2d	1f
.	.	.	8B-y	.	.
.	.	.	8A	.	.
.	.	4G	2B-y	2d	.
.	.	4F	.	.	.
=72	=72	=72	=72	=72	=72
1.C	2G	4E	1c	1e	1r
.	.	4F	.	.	.
.	2G	4G	.	.	.
.	.	4E	.	.	.
.	1A	2.F	4F	2d	1f
.	.	.	4G	.	.
[2F	.	.	4A	[2c	.
.	.	4E	4F	.	.
=73	=73	=73	=73	=73	=73
2F]	1G	1C	1c	4c]	2g
.	.	.	.	4d	.
2E	.	.	.	4e	2g
.	.	.	.	4c	.
2.D	2r	1r	2F	2.f	1a
.	2F	.	[2f	.	.
4C	.	.	.	4e	.
=74	=74	=74	=74	=74	=74
2BB-y	2G	0r	2f]	2d	1g
2C	2G	.	2e	2c	.
1FF	1A	.	2d	1f	2r
.	.	.	2c	.	[2cc
=75	=75	=75	=75	=75	=75
0r	1G	1r	1g	2e	2cc]
.	.	.	.	2d	2b-y
.	2F	2r	2r	2.c	2a
.	2E	[2c	2c	.	2g
.	.	.	.	4G	.
=76	=76	=76	=76	=76	=76
1r	1D	2c]	2d	2A	1f
.	.	2B-y	2d	2F	.
1C	1C	2A	1e	1c	2r
.	.	2G	.	.	2c
=77	=77	=77	=77	=77	=77
2D	1r	1F	2d	2r	2f
2D	.	.	2.d	2F	2.a
1E	2r	2.G	.	2B-y	.
.	.	.	4B-y	.	4g
.	2C	.	2c	2G	[2g
.	.	4F	.	.	.
=78	=78	=78	=78	=78	=78
1D	1F	2D	1d	1A	2g]
.	.	2F	.	.	2f#i
1GG	1D	2.B-y	1d	2G	1g
.	.	.	.	2B-y	.
.	.	4A	.	.	.
=79	=79	=79	=79	=79	=79
2C	1E	2G	2r	2c	2r
2AA	.	1A	2c	2c	2a
1BB-y	1D	.	2f	1d	2dd
.	.	2G	2d	.	2b-y
=80	=80	=80	=80	=80	=80
1AA	2r	2F	2.e	1c	2cc
.	2C	2E	.	.	1a
.	.	.	4d	.	.
2r	2F	2A	2c	2r	.
2GG	2D	2G	2d	2B-y	2b-y
=81	=81	=81	=81	=81	=81
2C	1E	2E	2r	2c	2g
2AA	.	1A	2c	2c	2a
1BB-y	1D	.	2f	1d	2dd
.	.	2G	2d	.	2b-y
=82	=82	=82	=82	=82	=82
1AA	0r	2E	1e	2c	4cc
.	.	.	.	.	4b-y
.	.	2A	.	2c	4a
.	.	.	.	.	4g
1r	.	2d	1d	2.f	2a
.	.	2B-y	.	.	[2b-y
.	.	.	.	4d	.
=83	=83	=83	=83	=83	=83
0r	2r	2c	2c	2e	4b-]
.	.	.	.	.	4a
.	2D	2A	2d	2f	1a
.	2G	1B-y	2G	2d	.
.	2E	.	2G	[2e	2g
=84	=84	=84	=84	=84	=84
1r	1F	0A	2c	4e]	1.a
.	.	.	.	4d	.
.	.	.	2d	2d	.
1AA	1E	.	2e	4c	.
.	.	.	.	4d	.
.	.	.	2c	4e	2cc
.	.	.	.	4c	.
=85	=85	=85	=85	=85	=85
2BB-y	0r	1D	1f	1d	2b-y
1D	.	.	.	.	2a
.	.	2E	1e	2B-y	1g
2C	.	[2G	.	2c	.
=86	=86	=86	=86	=86	=86
1D	0r	2G]	0d	1A	2r
.	.	2F	.	.	2a
1GG	.	1G	.	1G	1b-y
=87	=87	=87	=87	=87	=87
2AA	1C	1E	1c	0r	2a
1C	.	.	.	.	2g
.	2D	1D	2A	.	1f
2BB-y	[2F	.	2B-y	.	.
=88	=88	=88	=88	=88	=88
1C	2F]	0C	1G	1c	2r
.	2E	.	.	.	2g
1FF	1F	.	1F	1A	1a
=89	=89	=89	=89	=89	=89
2GG	1BB-y	1r	1d	1B-y	2g
1BB-y	.	.	.	.	2f
.	2C	1C	1c	2G	1e
2AA	2E	.	.	2A	.
=90	=90	=90	=90	=90	=90
1BB-y	2.D	2D	2.B-y	1F	1r
.	.	2.F	.	.	.
.	4C	.	4c	.	.
1GG	1BB-y	.	2d	1B-y	1g
.	.	8E	.	.	.
.	.	8D	.	.	.
.	.	2E	2G	.	.
=91	=91	=91	=91	=91	=91
0FF	0C	1F	1c	1A	2a
.	.	.	.	.	4f
.	.	.	.	.	4g
.	.	2r	1A	1c	4a
.	.	.	.	.	4b-y
.	.	[2F	.	.	[2a
=92	=92	=92	=92	=92	=92
2r	0r	2F]	0r	2d	2a]
1C	.	2G	.	1e	1g
.	.	2.A	.	.	.
2D	.	.	.	2d	2f
.	.	4B-y	.	.	.
=93	=93	=93	=93	=93	=93
2E	0r	2G	2r	1c	2e
1F	.	1A	1c	.	4d
.	.	.	.	.	4c
.	.	.	.	1A	1f
4E	.	4G	2d	.	.
4D	.	4F	.	.	.
=94	=94	=94	=94	=94	=94
2C	0r	4G	2e	2r	2e
.	.	4E	.	.	.
2D	.	2A	1f	1F	2d
1BB-y	.	2D	.	.	1d
.	.	2D	4e	2G	.
.	.	.	4d	.	.
=95	=95	=95	=95	=95	=95
2AA	0r	2E	2c	2A	0r
2.GG	.	2G	2d	2B-y	.
.	.	2.D	1B-y	1G	.
4AA	.	.	.	.	.
4BB-y	.	.	.	.	.
4C	.	4E	.	.	.
=96	=96	=96	=96	=96	=96
4D	1F	2F	1A	4F	0r
4E	.	.	.	4G	.
1F	.	4E	.	4A	.
.	.	4D	.	4B-y	.
.	1G	1C	2r	4c	.
.	.	.	.	4d	.
2E	.	.	2c	4e	.
.	.	.	.	4c	.
=97	=97	=97	=97	=97	=97
4D	2A	0r	1.d	2f	1f
4C	.	.	.	.	.
4BB-y	1B-y	.	.	2d	.
4AA	.	.	.	.	.
1GG	.	.	.	4B-y	1g
.	.	.	.	4c	.
.	4A	.	4c	4d	.
.	4G	.	4B-y	4e	.
=98	=98	=98	=98	=98	=98
0r	2F	0r	4c	2f	2a
.	.	.	4A	.	.
.	2G	.	2d	1B-y	1b-y
.	1E-X	.	1G	.	.
.	.	.	.	2c	4a
.	.	.	.	.	4g
=99	=99	=99	=99	=99	=99
0r	1.D	1.F	1A	2d	4f
.	.	.	.	.	4g
.	.	.	.	1f	2a
.	.	.	2B-y	.	2d
.	[2C	2G	[2c	[2e	2g
=100	=100	=100	=100	=100	=100
1r	2C]	2A	2c]	2e]	4e
.	.	.	.	.	4c
.	2D	2B-y	2B-y	1d	2f
2r	2E	2G	1c	.	2e
[2FF	2F	[2A	.	[2c	2c
=101	=101	=101	=101	=101	=101
2FF]	1D	2A]	2F	2c]	1d
2GG	.	1G	2B-y	2B-y	.
2AA	2C	.	2A	2c	1f
2BB-y	2D	[2F	4G	2B-y	.
.	.	.	4F	.	.
=102	=102	=102	=102	=102	=102
1GG	1BB-y	2F]	1B-y	2d	1g
.	.	2E	.	4c	.
.	.	.	.	4B-y	.
1FF	2C	1F	1r	1A	2a
.	[2F	.	.	.	2f
=103	=103	=103	=103	=103	=103
1C	2F]	0r	1c	2.G	2.g
.	2E	.	.	.	.
.	.	.	.	4A	8f
.	.	.	.	.	8e
2BB-y	2F	.	2d	2B-y	2d
2AA	[2A	.	2e	[2c	2c
=104	=104	=104	=104	=104	=104
1D	2A]	0r	4d	2c]	1f
.	.	.	4e	.	.
.	4G	.	2f	2B-y	.
.	4F	.	.	.	.
2C	2A	.	2e	2c	2r
2BB-y	2B-y	.	2d	2F	[2f
=105	=105	=105	=105	=105	=105
1C	1G	1r	2.c	2r	2f]
.	.	.	.	1c	2e
.	.	.	4B-y	.	.
1D	1F	2r	2A	.	1d
.	.	[2F	4G	2B-y	.
.	.	.	4F	.	.
=106	=106	=106	=106	=106	=106
1C	0r	2F]	1G	1c	1g
.	.	2E	.	.	.
1r	.	2D	1B-y	2d	2f
.	.	2G	.	4c	4e
.	.	.	.	4B-y	4d
=107	=107	=107	=107	=107	=107
0r	1r	2F	2A	2.c	2f
.	.	2E	2G	.	1g
.	.	.	.	4d	.
.	2r	1A	[1c	2e	.
.	[2F	.	.	[2c	2f
=108	=108	=108	=108	=108	=108
1C	2F]	1.G	1c]	4c]	1g
.	.	.	.	4d	.
.	2E	.	.	4e	.
.	.	.	.	4c	.
2.GG	2D	.	2.B-y	1d	[1b-y
.	2G	4F	.	.	.
4AA	.	4E	4c	.	.
=109	=109	=109	=109	=109	=109
2BB-y	2F	2D	2d	2r	2b-]
2C	2E	2C	2e	1c	4a
.	.	.	.	.	4g
1FF	1A	1F	4c	.	2a
.	.	.	4B-y	.	.
.	.	.	4c	2c	2f
.	.	.	4d	.	.
=110	=110	=110	=110	=110	=110
1.C	2.G	0E	1e	2.c	2g
.	.	.	.	.	1g
.	4F	.	.	4d	.
.	2G	.	1c	1e	.
2C	[2A	.	.	.	4f
.	.	.	.	.	4e
=111	=111	=111	=111	=111	=111
2D	4A]	2r	1r	2d	2f
.	4G	.	.	.	.
2C	4E	1G	.	2e	2g
.	4F	.	.	.	.
2.C	2G	.	2r	1c	1e
.	2C	4F	[2c	.	.
4BB-y	.	4E	.	.	.
=112	=112	=112	=112	=112	=112
1GG	2.D	2.G	2c]	2r	2d
.	.	.	4B-y	2d	1g
.	4C	4F	4A	.	.
1r	2G	1E	2B-y	1e-X	.
.	2C	.	2c	.	4f
.	.	.	.	.	4e
=113	=113	=113	=113	=113	=113
0r	2D	0r	2A	2d	2f
.	2E	.	2G	1c	2g
.	2C	.	2A	.	2e
.	[2F	.	2c	4B-y	[2a
.	.	.	.	4A	.
=114	=114	=114	=114	=114	=114
0r	2F]	2r	2d	2B-y	2a]
.	2E	1c	2e	2c	2g
.	1F	.	2c	2A	2f
.	.	4B-y	[2f	[2d	2a
.	.	4A	.	.	.
=115	=115	=115	=115	=115	=115
2r	2G	2B-y	4f]	2d]	2g
.	.	.	4e	.	.
1F	2A	2c	2f	2c	2f
.	2F	2A	2c	1f	2a
4E	2A	[2d	2f	.	4g
4D	.	.	.	.	4f
=116	=116	=116	=116	=116	=116
2E	2G	4d]	2e	2r	2g
.	.	4c	.	.	.
2F	2F	1c	2c	1f	2a
1D	2A	.	1d	.	2.f
.	4G	2B-y	.	4e	.
.	4F	.	.	4d	4g
=117	=117	=117	=117	=117	=117
2C	2E	2c	2r	2e	4a
.	.	.	.	.	4g
1BB-y	1D	2F	1d	2f	2b-y
.	.	1B-y	.	1d	2f
4AA	2G	.	4c	.	[2g
4GG	.	.	4B-y	.	.
=118	=118	=118	=118	=118	=118
2AA	2E	2A	2c	2r	4g]
.	.	.	.	.	4f
2BB-y	2D	1D	2d	1d	2f
1GG	2.G	.	1B-y	.	1b-y
.	.	[2G	.	4c	.
.	4F	.	.	4B-y	.
=119	=119	=119	=119	=119	=119
2AA	2E	4G]	2r	2c	2a
.	.	4F	.	.	.
2BB-y	2D	1F	1B-y	1d	2f
1GG	1BB-y	.	.	.	1g
.	.	2E	4A	2G	.
.	.	.	4G	.	.
=120	=120	=120	=120	=120	=120
1FF	2.C	2F	2.A	0c	2c
.	.	2A	.	.	1f
.	4D	.	4B-y	.	.
1C	1E	1G	2c	.	.
.	.	.	2G	.	2e
=121	=121	=121	=121	=121	=121
2.FF	2C	0F	2.A	2.c	[0fl
.	2.F	.	.	.	.
4GG	.	.	4B-y	4B-y	.
2AA	.	.	2c	2A	.
.	4E	.	.	.	.
[2BB-y	4D	.	[2d	4G	.
.	4C	.	.	4F	.
=122	=122	=122	=122	=122	=122
2BB-]	2BB-y	0F	2d]	2B-y	0f_
2AA	2F	.	2c	2c	.
1BB-y	2D	.	1B-y	1d	.
.	2BB-y	.	.	.	.
=	=	=	=	=	=
00FF	00C	00F	00A	00c	00f]
=||	=||	=||	=||	=||	=||
*M2/1	*M2/1	*M2/1	*M2/1	*M2/1	*M2/1
*met(C|)	*met(C|)	*met(C|)	*met(C|)	*met(C|)	*met(C|)
!!section: Qui tollis
!!!OMD: Qui tollis
0r	1r	0r	1F	0r	1.f
.	[1F	.	[1A	.	.
.	.	.	.	.	2c
=123	=123	=123	=123	=123	=123
0r	2F]	0r	2A]	0r	2d
.	2C	.	2G	.	2e
.	2D	.	1B-y	.	2f
.	2E	.	.	.	[2g
=124	=124	=124	=124	=124	=124
0r	2.F	0r	1A	1.c	4g]
.	.	.	.	.	4f
.	.	.	.	.	1f
.	4E	.	.	.	.
.	2C	.	1G	.	.
.	2E	.	.	2G	2e
=125	=125	=125	=125	=125	=125
0r	1D	0r	2.F	2A	1f
.	.	.	.	2B-y	.
.	.	.	4G	.	.
.	2C	.	2A	2c	2e
.	2BB-y	.	2B-y	[2d	2d
=126	=126	=126	=126	=126	=126
0r	1C	1r	2A	4d]	1e
.	.	.	.	4c	.
.	.	.	2G	1c	.
.	2.D	1F	2F	.	1d
.	.	.	[2f	2B-y	.
.	4BB-y	.	.	.	.
=127	=127	=127	=127	=127	=127
2r	1F	1.A	2f]	0c	1r
1F	.	.	4e	.	.
.	.	.	4d	.	.
.	1r	.	2c	.	2r
2C	.	2G	2e	.	2g
=128	=128	=128	=128	=128	=128
2D	0r	1B-y	2d	1r	2f
2E	.	.	2.g	.	2e
2.F	.	1A	.	2r	2d
.	.	.	4f	.	.
.	.	.	[2f	[2c	2c
4E	.	.	.	.	.
=129	=129	=129	=129	=129	=129
2C	0r	1G	2f]	4c]	2.g
.	.	.	.	4B-y	.
2E	.	.	2e	2G	.
.	.	.	.	.	4f
1D	.	2F	2f	2A	2d
.	.	4E	2F	2B-y	2f
.	.	4D	.	.	.
=130	=130	=130	=130	=130	=130
1C	2r	4E	2A	2.c	2.e
.	.	4C	.	.	.
.	2C	2c	1G	.	.
.	.	.	.	4B-y	4f
2r	2E	4B-y	.	1G	1g
.	.	4c	.	.	.
2GG	2D	4d	2B-y	.	.
.	.	4B-y	.	.	.
=131	=131	=131	=131	=131	=131
2AA	1F	0c	1A	2r	0r
2FF	.	.	.	4c	.
.	.	.	.	4d	.
1C	1E	.	2.G	4e	.
.	.	.	.	4f	.
.	.	.	.	[2g	.
.	.	.	4A	.	.
=132	=132	=132	=132	=132	=132
2.BB-y	1D	1F	4B-y	4g]	2r
.	.	.	4c	4c	.
.	.	.	4d	2.f	2b-y
4AA	.	.	4B-y	.	.
2FF	2C	2A	1c	.	2a
.	.	.	.	4e	.
2C	2E	[2G	.	8c	2cc
.	.	.	.	8d	.
.	.	.	.	8e	.
.	.	.	.	8f	.
=133	=133	=133	=133	=133	=133
2GG	1D	4G]	2d	2g	2b-y
.	.	4F	.	.	.
2BB-y	.	2D	2B-y	2d	4f
.	.	.	.	.	4g
1AA	2r	2.E	1c	2c	4a
.	.	.	.	.	4b-y
.	2C	.	.	2A	[2cc
.	.	4F	.	.	.
=134	=134	=134	=134	=134	=134
1GG	2E	1G	1r	1B-y	2cc]
.	2D	.	.	.	2b-y
2.FF	1F	[1C	1c	2.A	2.cc
4GG	.	.	.	4B-y	4b-y
=135	=135	=135	=135	=135	=135
4AA	1E	1C]	2c	2c	2a
4BB-y	.	.	.	.	.
1C	.	.	2c	2G	2g
.	1D	1F	1d	2A	2f
2BB-y	.	.	.	2B-y	2d
=136	=136	=136	=136	=136	=136
0C	0r	2E	[0c	1G	0e
.	.	1G	.	.	.
.	.	.	.	2.E	.
.	.	2A	.	.	.
.	.	.	.	4F	.
=137	=137	=137	=137	=137	=137
1.C	0r	2G	1c]	1G	1e
.	.	1E	.	.	.
.	.	.	1r	2.A	2e
2D	.	2F	.	.	2d
.	.	.	.	8G	.
.	.	.	.	8F	.
=138	=138	=138	=138	=138	=138
2C	0r	2G	1.c	1E	1e
1AA	.	1A	.	.	.
.	.	.	.	1F	1r
2BB-y	.	4G	2d	.	.
.	.	4F	.	.	.
=139	=139	=139	=139	=139	=139
2C	2r	2E	2c	2.A	0r
1D	1F	2F	1A	.	.
.	.	.	.	4G	.
.	.	1D	.	2F	.
4C	2G	.	2B-y	4E	.
4BB-y	.	.	.	4D	.
=140	=140	=140	=140	=140	=140
2AA	2F	0r	2c	2A	2r
2BB-y	1D	.	1d	4G	2f
.	.	.	.	4F	.
1GG	.	.	.	2.B-y	1g
.	2E	.	4c	.	.
.	.	.	4B-y	4c	.
=141	=141	=141	=141	=141	=141
0r	2F	0r	2A	1d	2f
.	1G	.	1B-y	.	1d
.	.	.	.	1G	.
.	4F	.	2c	.	2e
.	4E	.	.	.	.
=142	=142	=142	=142	=142	=142
0r	2D	2r	1B-y	1d	2f
.	2G	1B-y	.	.	1g
.	2E	.	2.G	1e-X	.
.	2C	2c	.	.	4f
.	.	.	4A	.	4e
=143	=143	=143	=143	=143	=143
2r	4G	2B-y	2B-y	0r	2d
.	4F	.	.	.	.
1C	4E	2G	1c	.	1e
.	4D	.	.	.	.
.	2C	2A	.	.	.
2D	2F	4G	2B-y	.	2d
.	.	4F	.	.	.
=144	=144	=144	=144	=144	=144
2C	2E	1A	1c	1c	2e
2AA	2C	.	.	.	1f
2BB-y	2r	1G	1r	2d	.
2C	2C	.	.	2c	2e
=145	=145	=145	=145	=145	=145
1D	1.F	0r	0r	2A	1f
.	.	.	.	2B-y	.
1C	.	.	.	1c	2r
.	2E	.	.	.	2g
=146	=146	=146	=146	=146	=146
2.BB-y	2F	1D	0r	1d	2b-y
.	2G	.	.	.	2b-y
4AA	.	.	.	.	.
1FF	1A	[1F	.	[1c	2a
.	.	.	.	.	2f
=147	=147	=147	=147	=147	=147
1C	1G	2F]	2r	0c]	2g
.	.	2E	2G	.	2c
1FF	2.F	2F	2A	.	[1f
.	.	2A	2F	.	.
.	4E	.	.	.	.
=148	=148	=148	=148	=148	=148
2r	1C	1G	2G	0r	2f]
2C	.	.	1c	.	2e
[1F	1r	2.F	.	.	2f
.	.	.	4B-y	.	2a
.	.	4E	4A	.	.
=149	=149	=149	=149	=149	=149
2F]	1C	2C	1c	2r	1g
2E	.	2G	.	1c	.
2F	[1F	2A	2r	.	1f
2D	.	2F	2F	2B-y	.
=150	=150	=150	=150	=150	=150
1C	2F]	1G	1.c	2c	2r
.	2E	.	.	2G	2c
1r	2F	1F	.	2A	[1f
.	2D	.	2B-y	2F	.
=151	=151	=151	=151	=151	=151
2r	1C	1r	2c	1G	2f]
2C	.	.	2G	.	2e
[1F	1r	2r	2A	1r	2f
.	.	2F	2F	.	2d
=152	=152	=152	=152	=152	=152
2F]	1C	1.c	1G	0r	4c
.	.	.	.	.	4d
2E	.	.	.	.	2e
2F	[1F	.	2r	.	2c
2D	.	2B-y	2F	.	2d
=153	=153	=153	=153	=153	=153
1C	2F]	2c	1.c	1G	1e
.	2E	2G	.	.	.
1FF	2.F	1A	.	1c	1c
.	.	.	2A	.	.
.	4E	.	.	.	.
=154	=154	=154	=154	=154	=154
1GG	2D	2.G	1B-y	2B-y	0r
.	2BB-y	.	.	2.d	.
.	.	4F	.	.	.
1AA	1C	2E	1A	.	.
.	.	.	.	4c	.
.	.	2C	.	4c	.
.	.	.	.	8B-y	.
.	.	.	.	8A	.
=155	=155	=155	=155	=155	=155
0GG	2D	2.G	0r	2B-y	1.g
.	2E	.	.	1c	.
.	.	4F	.	.	.
.	1D	4G	.	.	.
.	.	4F	.	.	.
.	.	4E	.	2B-y	2g
.	.	4D	.	.	.
=156	=156	=156	=156	=156	=156
1.C	1C	1E	1.e	0c	[0g
.	[1E	[1G	.	.	.
2C	.	.	2e	.	.
=157	=157	=157	=157	=157	=157
[0C	2E]	2G]	[0e	1.c	0g]
.	2E	2G	.	.	.
.	1E	[1G	.	.	.
.	.	.	.	2c	.
=158	=158	=158	=158	=158	=158
0C]	2r	1G]	0e]	2.c	1g
.	2E	.	.	.	.
.	.	.	.	4B-y	.
.	2E	1r	.	2G	2g
.	2C	.	.	[2A	2e
=159	=159	=159	=159	=159	=159
0r	2D	2r	2r	4A]	2f
.	.	.	.	4B-y	.
.	2E	2c	2e	2G	2g
.	2.F	2c	2c	1F	2.a
.	.	2A	2c	.	.
.	4E	.	.	.	4g
=160	=160	=160	=160	=160	=160
0r	2D	2B-y	2d	0r	4f
.	.	.	.	.	4g
.	2C	2c	2e	.	4a
.	.	.	.	.	8g
.	.	.	.	.	8a
.	4BB-y	2.d	[1f	.	2b-y
.	4C	.	.	.	.
.	4D	.	.	.	[2a
.	4E	4c	.	.	.
=161	=161	=161	=161	=161	=161
1FF	2.F	0A	2f]	1c	2a]
.	.	.	4e	.	4g
.	4E	.	4d	.	4f
2AA	2C	.	4c	2c	2e
.	.	.	4A	.	.
2FF	2F	.	[2d	2A	2f
=162	=162	=162	=162	=162	=162
2GG	1E-X	2r	2d]	2B-y	2b-y
2AA	.	2A	2c	2c	2.a
1BB-y	1D	2F	1B-y	2d	.
.	.	.	.	.	4f
.	.	2D	.	2B-y	2g
=163	=163	=163	=163	=163	=163
1AA	1C	2E	1r	2c	2a
.	.	2F	.	2A	2cc
2.GG	[1D	1G	1d	2r	2.b-y
.	.	.	.	2B-y	.
4AA	.	.	.	.	4cc
=164	=164	=164	=164	=164	=164
1BB-y	1D]	2F	2d	2B-y	1dd
.	.	2D	2B-y	2G	.
2AA	1r	2E	2c	2A	2cc
2GG	.	[2G	2d	2B-y	2b-y
=165	=165	=165	=165	=165	=165
1C	0r	4G]	2e	2c	1g
.	.	4F	.	.	.
.	.	4E	4d	2G	.
.	.	4D	4c	.	.
2AA	.	2C	2e	2.A	2.cc
2FF	.	[2c	2f	.	.
.	.	.	.	4B-y	4b-y
=166	=166	=166	=166	=166	=166
1AA	0r	4c]	2e	1c	4a
.	.	4B-y	.	.	4g
.	.	2A	4d	.	1f
.	.	.	4c	.	.
2BB-y	.	1G	2d	2B-y	.
2C	.	.	[2c	2G	2e
=167	=167	=167	=167	=167	=167
0FF	0C	[0F	4c]	2.A	[0f
.	.	.	4B-y	.	.
.	.	.	4A	.	.
.	.	.	4G	4B-y	.
.	.	.	1A	1c	.
=168	=168	=168	=168	=168	=168
0r	2.D	1F]	1r	2B-y	0f]
.	.	.	.	1A	.
.	4E	.	.	.	.
.	1F	1r	[1c	.	.
.	.	.	.	4G	.
.	.	.	.	4F	.
=169	=169	=169	=169	=169	=169
0r	2E	0r	1c]	2G	0r
.	2.F	.	.	2.A	.
.	.	.	1d	.	.
.	4E	.	.	4G	.
.	4D	.	.	[2c	.
.	4C	.	.	.	.
=170	=170	=170	=170	=170	=170
0r	1D	1F	1.f	2c]	0r
.	.	.	.	2Bni	.
.	1C	2.G	.	1c	.
.	.	.	2e	.	.
.	.	4A	.	.	.
=171	=171	=171	=171	=171	=171
0r	4BB-y	1B-y	1d	1F	0f
.	4C	.	.	.	.
.	4D	.	.	.	.
.	4E	.	.	.	.
.	2F	2A	2c	1r	.
.	2D	[2B-y	2d	.	.
=172	=172	=172	=172	=172	=172
0r	2E	2B-]	1c	2r	2g
.	2F	2A	.	2c	2a
.	1BB-y	4G	2B-y	2d	1b-y
.	.	4F	.	.	.
.	.	[2D	[2d	[2f	.
=173	=173	=173	=173	=173	=173
1r	2.D	4D]	4d]	2f]	2a
.	.	4E	4c	.	.
.	.	2F	2A	2d	1a
.	4C	.	.	.	.
[1C	4AA	4C	2.c	1e	.
.	4BB-y	4D	.	.	.
.	4C	4E	.	.	[2g
.	4D	4F	4B-y	.	.
=174	=174	=174	=174	=174	=174
2C]	2E	2.G	2G	2c	2g]
2GG	1D	.	2.B-y	1d	2g
.	.	4F	.	.	.
2.BB-y	.	4D	.	.	2f
.	.	4E	4A	.	.
.	2D	4F	[2F	2B-y	2b-y
4AA	.	4G	.	.	.
=175	=175	=175	=175	=175	=175
2FF	2.F	4A	4F]	1.c	1.a
.	.	4B-y	4G	.	.
2.F	.	2c	4A	.	.
.	4G	.	4B-y	.	.
.	2A	2F	2.c	.	.
4E	.	.	.	.	.
2C	2E	[2G	.	[2e	[2g
.	.	.	4B-y	.	.
=176	=176	=176	=176	=176	=176
2.E	2.G	4G]	2G	4e]	2g]
.	.	4E	.	4d	.
.	.	2G	2.B-y	2B-y	2e
4D	4F	.	.	.	.
2BB-y	2D	2.F	.	2.d	1f
.	.	.	4A	.	.
[2D	[2F	.	2F	.	.
.	.	4D	.	4c	.
=177	=177	=177	=177	=177	=177
4D]	4F]	2F	2.A	2A	2d
4C	4E	.	.	.	.
2AA	2C	2.E	.	2.c	1e
.	.	.	4G	.	.
2.C	2.E	.	2E	.	.
.	.	4D	.	4B-y	.
.	.	2E	2G	4G	2c
4BB-y	4D	.	.	4A	.
=178	=178	=178	=178	=178	=178
1GG	2BB-y	1D	2G	4B-y	1d
.	.	.	.	4c	.
.	2G	.	2G	4d	.
.	.	.	.	4B-y	.
2r	2G	1C	2E	1c	[1e
2C	2G	.	2e	.	.
=179	=179	=179	=179	=179	=179
2C	2E	0r	2e	2c	1e]
2C	2.A	.	2e	2c	.
2AA	.	.	2c	2c	1r
.	4G	.	.	.	.
[2D	4F	.	[2d	2A	.
.	4E	.	.	.	.
=180	=180	=180	=180	=180	=180
4D]	4F	0r	4d]	4B-y	2d
4C	4E	.	4e	4A	.
4BB-y	4D	.	1f	2.A	2d
4AA	4C	.	.	.	.
1BB-y	1D	.	.	.	2d
.	.	.	.	8G	.
.	.	.	.	8F	.
.	.	.	4e	2G	2B-y
.	.	.	4d	.	.
=181	=181	=181	=181	=181	=181
0AA	2r	2r	1c	1A	2.e
.	2E	2c	.	.	.
.	.	.	.	.	4c
.	2E	2c	2.A	[1e	2c
.	2E	2c	.	.	2cc
.	.	.	4B-y	.	.
=182	=182	=182	=182	=182	=182
0r	2C	2.A	1c	2e]	2cc
.	2.F	.	.	2c	2cc
.	.	4B-y	.	.	.
.	.	2c	1F	1f	1a
.	4E	.	.	.	.
.	4D	[2d	.	.	.
.	4C	.	.	.	.
=183	=183	=183	=183	=183	=183
1.D	4BB-y	4d]	0r	1.f	2b-y
.	4C	4c	.	.	.
.	4D	2A	.	.	1a
.	4E	.	.	.	.
.	2F	[1B-y	.	.	.
2E	2G	.	.	2e	2g
=184	=184	=184	=184	=184	=184
1F	1.D	2B-]	1.f	2.d	1a
.	.	1A	.	.	.
.	.	.	.	4c	.
1r	.	.	.	1B-y	1r
.	2E	2G	2e	.	.
=185	=185	=185	=185	=185	=185
2.D	1F	2A	2.d	0r	2.f
.	.	1A	.	.	.
4E	.	.	8c	.	4e
.	.	.	8B-y	.	.
2F	2r	.	1A	.	2c
2E	2C	2A	.	.	2e
=186	=186	=186	=186	=186	=186
2F	2D	2A	0r	0r	2d
2C	2E	2G	.	.	2c
2D	2F	2B-y	.	.	2f
2E	[2G	2B-y	.	.	2e
=187	=187	=187	=187	=187	=187
2.F	4G]	1A	0r	2r	1d
.	4F	.	.	.	.
.	2F	.	.	2f	.
4E	.	.	.	.	.
2.C	4G	1G	.	2e	2c
.	4E	.	.	.	.
.	[2G	.	.	2c	2cc
4BB-y	.	.	.	.	.
=188	=188	=188	=188	=188	=188
2GG	4G]	1B-y	1r	2d	2b-y
.	4F	.	.	.	.
2BB-y	2D	.	.	2d	2g
1FF	2F	2A	1f	2.c	2a
.	2F	2F	.	.	2a
.	.	.	.	4B-y	.
=189	=189	=189	=189	=189	=189
1C	2C	2G	2e	2c	2g
.	2E	2G	2c	2G	2e
1r	2D	1F	2d	2.A	2.f
.	[2F	.	[2c	.	.
.	.	.	.	4B-y	4g
=190	=190	=190	=190	=190	=190
0r	2F]	1r	2c]	1.c	1a
.	4E	.	1f	.	.
.	4D	.	.	.	.
.	1C	1c	.	.	1g
.	.	.	2e	2e	.
=191	=191	=191	=191	=191	=191
0r	1r	2B-y	2f	1d	1b-y
.	.	2G	2g	.	.
.	1F	2A	2f	2c	2a
.	.	2A	2d	2A	2f
=192	=192	=192	=192	=192	=192
0r	2E	2G	1e-X	2B-y	1g
.	2C	2E	.	2.c	.
.	2D	1F	2d	.	2f
.	.	.	.	8B-y	.
.	.	.	.	8A	.
.	2D	.	2B-y	2B-y	2d
=193	=193	=193	=193	=193	=193
1C	2C	2E	2c	2G	1e
.	2E	2C	2A	2.A	.
2BB-y	2F	1D	1B-y	.	2d
.	.	.	.	4G	.
2GG	2G	.	.	[2G	2B-y
=194	=194	=194	=194	=194	=194
2AA	2E	1C	2A	4G]	2c
.	.	.	.	4F	.
2AA	2C	.	2F	1F	2cc
1GG	1G	2D	1B-y	.	2b-y
.	.	4C	.	2E	2g
.	.	4BB-y	.	.	.
=195	=195	=195	=195	=195	=195
0FF	1r	1C	1A	2F	0a
.	.	.	.	2c	.
.	1C	1F	[1c	2.A	.
.	.	.	.	4B-y	.
=196	=196	=196	=196	=196	=196
2.C	1E	1.G	1c]	4c	2.g
.	.	.	.	4d	.
.	.	.	.	4e	.
4BB-y	.	.	.	4c	4a
2GG	2D	.	2B-y	4d	2b-y
.	.	.	.	4e	.
2AA	2C	2F	2A	[2f	2cc
=197	=197	=197	=197	=197	=197
2BB-y	1G	2D	2d	2f]	2b-y
2C	.	2E	2.c	2e	2g
1FF	1F	2C	.	1f	1a
.	.	.	4B-y	.	.
.	.	[2c	4c	.	.
.	.	.	4d	.	.
=198	=198	=198	=198	=198	=198
[0Cl	[0El	4c]	[0el	2r	1g
.	.	4B-y	.	.	.
.	.	2G	.	2.c	.
.	.	2A	.	.	2r
.	.	.	.	4B-y	.
.	.	2G	.	2G	[2cc
=199	=199	=199	=199	=199	=199
0C_	0E_	2E	0e_	2A	4cc]
.	.	.	.	.	4b-y
.	.	2.c	.	2G	2g
.	.	.	.	1c	2a
.	.	4B-y	.	.	.
.	.	2G	.	.	2g
=200	=200	=200	=200	=200	=200
0C_	0E_	2A	0e_	[0cl	2.e
.	.	2G	.	.	.
.	.	.	.	.	4f
.	.	2.E	.	.	1g
.	.	4F	.	.	.
=	=	=	=	=	=
00C]	00E]	00G	00e]	00c]	00g
=||	=||	=||	=||	=||	=||
*M2/1	*M2/1	*M2/1	*M2/1	*M2/1	*M2/1
*met(C|)	*met(C|)	*met(C|)	*met(C|)	*met(C|)	*met(C|)
!!section: Cum sancto spiritu
!!!OMD: Cum sancto spiritu 
0r	1C	0r	0r	1c	1r
.	2E	.	.	2B-y	1g
.	2E	.	.	2G	.
=201	=201	=201	=201	=201	=201
0r	2D	0r	0r	2A	2f
.	2D	.	.	2B-y	2d
.	2C	.	.	2c	2e
.	2F	.	.	4B-y	2f
.	.	.	.	4A	.
=202	=202	=202	=202	=202	=202
1C	2E	1r	0r	1G	2g
.	2C	.	.	.	4f
.	.	.	.	.	4e
2BB-y	1D	1G	.	1B-y	1d
2GG	.	.	.	.	.
=203	=203	=203	=203	=203	=203
2AA	2r	2F	1r	2c	0r
2BB-y	2F	2D	.	2B-y	.
2C	2E	2E	1c	2G	.
4BB-y	2C	2F	.	2A	.
4AA	.	.	.	.	.
=204	=204	=204	=204	=204	=204
1GG	2D	2G	2B-y	1B-y	1r
.	2E	4F	2G	.	.
.	.	4E	.	.	.
2.FF	2.F	2D	2.A	1r	1f
.	.	2C	.	.	.
4GG	8E	.	4B-y	.	.
.	8D	.	.	.	.
=205	=205	=205	=205	=205	=205
1AA	2C	1C	2c	1c	2e
.	1F	.	4B-y	.	2c
.	.	.	4A	.	.
2BB-y	.	2r	1G	2B-y	2d
[2C	2E	2G	.	2G	2e
=206	=206	=206	=206	=206	=206
2C]	1D	2F	1r	2A	2.f
2BB-y	.	2D	.	2B-y	.
.	.	.	.	.	4g
1AA	1C	2E	2r	2.c	1a
.	.	2F	2c	.	.
.	.	.	.	4B-y	.
=207	=207	=207	=207	=207	=207
1GG	1D	2G	2B-y	4G	2d
.	.	.	.	4A	.
.	.	4F	2G	4B-y	2g
.	.	4E	.	4c	.
1r	1r	1D	2.A	2.d	2f
.	.	.	.	.	2d
.	.	.	4B-y	8c	.
.	.	.	.	8B-y	.
=208	=208	=208	=208	=208	=208
1r	2r	0r	2c	2.A	2e
.	2F	.	4B-y	.	2f
.	.	.	4A	8G	.
.	.	.	.	8F	.
1C	2E	.	1G	2c	2g
.	2C	.	.	4G	4f
.	.	.	.	4A	4e
=209	=209	=209	=209	=209	=209
2BB-y	1D	1G	2r	4B-y	1d
.	.	.	.	4c	.
2GG	.	.	2B-y	4d	.
.	.	.	.	4B-y	.
2AA	1F	2F	2A	2c	1r
2BB-y	.	2D	[2d	2B-y	.
=210	=210	=210	=210	=210	=210
2C	2E	2E	2d]	2G	1c
4BB-y	2C	2F	2c	2A	.
4AA	.	.	.	.	.
1GG	1D	1G	2B-y	1B-y	2.g
.	.	.	4A	.	.
.	.	.	4G	.	8f
.	.	.	.	.	8g
=211	=211	=211	=211	=211	=211
1FF	2.F	2C	0c	1A	2a
.	.	1F	.	.	2f
.	4E	.	.	.	.
1C	2C	.	.	2.G	1g
.	2E	2E	.	.	.
.	.	.	.	4A	.
=212	=212	=212	=212	=212	=212
2BB-y	2D	1F	1r	2B-y	0r
2AA	2C	.	.	1c	.
1GG	1D	1G	1d	.	.
.	.	.	.	2Bni	.
=213	=213	=213	=213	=213	=213
2.C	1C	2.E	2e	2.c	2r
.	.	.	1c	.	2.g
4BB-y	.	4F	.	4d	.
1GG	1r	1G	.	2e	.
.	.	.	.	.	4a
.	.	.	2B-y	2d	2b-y
=214	=214	=214	=214	=214	=214
1r	1C	1E	2.c	1e	2a
.	.	.	.	.	2g
.	.	.	4d	.	.
2r	2.AA	1A	[1e	[1c	2.cc
[2C	.	.	.	.	.
.	4BB-y	.	.	.	4b-y
=215	=215	=215	=215	=215	=215
4C]	2C	2r	2e]	1c]	2a
4D	.	.	.	.	.
2E	2C	2G	2c	.	2g
2D	2F	2A	2d	1r	2f
2C	2G	[2c	2e	.	4e
.	.	.	.	.	4d
=216	=216	=216	=216	=216	=216
1.F	2A	4c]	2.f	2r	2c
.	.	4B-y	.	.	.
.	4G	4A	.	2.c	2c
.	4F	4G	4e	.	.
.	2c	2A	1c	.	2f
.	.	.	.	4d	.
2E	2C	2G	.	2e	2g
=217	=217	=217	=217	=217	=217
2F	2.F	4F	2r	4d	1a
.	.	4G	.	4c	.
4E	.	4A	2.c	1f	.
4D	4G	4B-y	.	.	.
1C	2A	1c	.	.	1r
.	.	.	4d	.	.
.	2G	.	2e	2e	.
=218	=218	=218	=218	=218	=218
2.BB-y	1B-y	0F	1.d	0f	2r
.	.	.	.	.	2.f
4C	.	.	.	.	.
4D	1A	.	.	.	.
4E	.	.	.	.	4g
2F	.	.	2c	.	2a
=219	=219	=219	=219	=219	=219
2.BB-y	1B-y	2r	2B-y	2.d	2g
.	.	2.F	1d	.	2f
4C	.	.	.	4e	.
4D	1F	.	.	2f	2b-y
4E	.	4G	.	.	.
2F	.	2A	2c	2c	2a
=220	=220	=220	=220	=220	=220
1.BB-y	2.D	2G	2B-y	2.d	2.b-y
.	.	2F	2.F	.	.
.	4E	.	.	4c	4a
.	2F	1B-y	.	2d	2f
.	.	.	4D	.	.
4AA	2BB-y	.	2E	2G	2g
4GG	.	.	.	.	.
=221	=221	=221	=221	=221	=221
1FF	2.C	1A	2F	2.c	2a
.	.	.	2.c	.	1f
.	4D	.	.	4B-y	.
1C	1E	1G	.	2G	.
.	.	.	4B-y	.	.
.	.	.	2G	[2c	2e
=222	=222	=222	=222	=222	=222
1FF	2C	2F	2A	2c]	1a
.	2F	2A	2f	2.d	.
1r	2G	2B-y	2d	.	1g
.	.	.	.	4B-y	.
.	2E	2G	2e	[2c	.
=223	=223	=223	=223	=223	=223
2r	2.F	2.A	2c	4c]	2f
.	.	.	.	4B-y	.
1F	.	.	2c	4A	1a
.	4G	4B-y	.	4G	.
.	2A	2c	1f	2F	.
2D	[2B-y	2F	.	[2d	2f
=224	=224	=224	=224	=224	=224
2E	4B-]	2B-y	1e	4d]	2g
.	4G	.	.	4c	.
2C	1A	2c	.	1c	4f
.	.	.	.	.	4e
1D	.	1F	1d	.	2f
.	4G	.	.	2B-y	2d
.	4F	.	.	.	.
=225	=225	=225	=225	=225	=225
2C	2E	1A	2r	2c	2e
1D	2F	.	2A	1A	2d
.	2D	2F	1d	.	2f
2BB-y	2D	[2G	.	[2B-y	4e
.	.	.	.	.	4d
=226	=226	=226	=226	=226	=226
2C	2G	4G]	1c	4B-]	2e
.	.	4E	.	4A	.
2AA	2A	1F	.	1A	2c
1BB-y	1D	.	1B-y	.	2d
.	.	4E	.	2G	4c
.	.	4D	.	.	4B-y
=227	=227	=227	=227	=227	=227
2AA	1F	2C	2r	2A	2c
1BB-y	.	1D	2F	1F	2B-y
.	2BB-y	.	1B-y	.	2d
2GG	2BB-y	[2E	.	[2G	4c
.	.	.	.	.	4B-y
=228	=228	=228	=228	=228	=228
2AA	2E	4E]	1A	4G]	2c
.	.	4C	.	4F	.
2FF	2F	1D	.	1F	2A
1GG	1BB-y	.	1G	.	1G
.	.	4C	.	2E	.
.	.	4BB-y	.	.	.
=229	=229	=229	=229	=229	=229
1FF	1r	2C	1.c	4F	2A
.	.	.	.	4G	.
.	.	2F	.	4A	2a
.	.	.	.	4F	.
1C	2r	1E	.	2G	4g
.	.	.	.	.	4e
.	2C	.	2e	[2c	2g
=230	=230	=230	=230	=230	=230
1D	2F	1F	1d	2c]	4f
.	.	.	.	.	4d
.	2D	.	.	2B-y	2f
1C	1E	2.G	2G	1c	2e
.	.	.	2c	.	[2g
.	.	4A	.	.	.
=231	=231	=231	=231	=231	=231
2BB-y	1D	4B-y	2d	1F	4g]
.	.	4A	.	.	4f
2D	.	4G	2B-y	.	1f
.	.	4F	.	.	.
1C	1E	1G	1c	2r	.
.	.	.	.	[2c	2e
=232	=232	=232	=232	=232	=232
[0FFl	[0Cl	[0Fl	2A	4c]	[0fl
.	.	.	.	4B-y	.
.	.	.	2.c	4A	.
.	.	.	.	4G	.
.	.	.	.	2.A	.
.	.	.	4B-y	.	.
.	.	.	4A	.	.
.	.	.	4G	4B-y	.
=233	=233	=233	=233	=233	=233
00FF]	00C]	00F]	00Al	00cl	00f]
==	==	==	==	==	==
*-	*-	*-	*-	*-	*-
!!!system-decoration: [*]
!!!RDF**kern: i = editorial accidental
!!!RDF**kern: l = terminal long
!!!ENC: Benjamin Ory
!!!END: 2021/06/02
!!!EED: Benjamin Ory
!!!EEV: 2021/06/02
!!!YEC: Copyright 2021 Benjamin Ory, All Rights Reserved
!!!ONB: Translated from MusicXML on 2021/06/02
